icons/desktop/16/svg/flower-16.svg

<svg width="16" height="16" viewBox="0 0 16 16" fill="none" xmlns="http://www.w3.org/2000/svg">
<g clip-path="url(#clip0_8069_32647)">
<path d="M8 7C8.55228 7 9 7.44772 9 8C9 8.55228 8.55228 9 8 9C7.44772 9 7 8.55228 7 8C7 7.44772 7.44772 7 8 7Z" fill="black"/>
<path fill-rule="evenodd" clip-rule="evenodd" d="M8 0.5C9.74898 0.5 11.205 1.68885 11.6348 3.2959C11.6642 3.29508 11.6938 3.29297 11.7236 3.29297C13.7832 3.29297 15.4571 4.94243 15.498 6.99219C15.5006 7.01744 15.502 7.0434 15.502 7.06934C15.5018 8.24493 14.9593 9.28163 14.123 9.96875C14.4026 10.4892 14.5702 11.0832 14.5703 11.7236C14.5703 13.8088 12.8792 15.5 10.7939 15.5C9.68437 15.5 8.69071 15.0192 8.00098 14.2588C7.31123 15.0192 6.31759 15.5 5.20801 15.5C3.12279 15.5 1.43164 13.8088 1.43164 11.7236C1.4317 11.0834 1.59855 10.4891 1.87793 9.96875C1.04207 9.2819 0.500103 8.24551 0.5 7.06934C0.5 4.98412 2.19115 3.29297 4.27637 3.29297C4.30587 3.29297 4.33514 3.2951 4.36426 3.2959C4.79429 1.68902 6.25048 0.5 8 0.5ZM8 2C6.78318 2 5.79397 2.95955 5.7373 4.1709C5.72685 4.39465 5.61679 4.60208 5.4375 4.73633C5.25801 4.87056 5.02729 4.9175 4.80957 4.86426C4.6222 4.81846 4.44689 4.79301 4.27637 4.79297C3.01958 4.79297 2 5.81255 2 7.06934C2.00013 7.95108 2.50932 8.71255 3.25977 9.09082C3.46571 9.19463 3.61203 9.3881 3.65723 9.61426C3.70235 9.84036 3.6414 10.0751 3.49121 10.25C3.14232 10.6565 2.93173 11.166 2.93164 11.7236C2.93164 12.9804 3.95122 14 5.20801 14C6.15279 14 6.96457 13.4228 7.30859 12.5977L7.35938 12.4971C7.49383 12.2751 7.73616 12.1358 8.00098 12.1357C8.30372 12.1357 8.57688 12.3182 8.69336 12.5977C9.03737 13.4228 9.84918 14 10.7939 14C12.0507 14 13.0703 12.9804 13.0703 11.7236C13.0702 11.166 12.8596 10.6565 12.5107 10.25C12.3606 10.0751 12.2996 9.84035 12.3447 9.61426C12.3899 9.38811 12.5362 9.19463 12.7422 9.09082C13.4864 8.7157 13.9926 7.96262 14.001 7.09082C14.0008 7.08368 14 7.07653 14 7.06934C14 5.81255 12.9804 4.79297 11.7236 4.79297C11.5538 4.79301 11.3795 4.81914 11.1875 4.86523C10.97 4.91747 10.7403 4.86974 10.5615 4.73535C10.3828 4.60104 10.2731 4.3942 10.2627 4.1709C10.2069 2.96028 9.21726 2 8 2Z" fill="black"/>
</g>
<defs>
<clipPath id="clip0_8069_32647">
<rect width="16" height="16" fill="white"/>
</clipPath>
</defs>
</svg>

<!-- This Source Code Form is subject to the terms of the Mozilla Public
   - License, v. 2.0. If a copy of the MPL was not distributed with this
   - file, You can obtain one at http://mozilla.org/MPL/2.0/. -->
<svg xmlns="http://www.w3.org/2000/svg" width="16" height="16" fill="context-fill" fill-opacity="context-fill-opacity" viewBox="0 0 16 16">
    <g clip-path="url(#clip0_8069_32647)">
        <path d="M8 7a1 1 0 1 1 0 2 1 1 0 0 1 0-2" />
        <path fill-rule="evenodd" d="M8 .5a3.76 3.76 0 0 1 3.635 2.796q.045-.001.089-.003c2.06 0 3.733 1.65 3.774 3.7l.004.076a3.74 3.74 0 0 1-1.379 2.9c.28.52.447 1.114.447 1.755a3.777 3.777 0 0 1-3.776 3.776A3.76 3.76 0 0 1 8 14.259 3.76 3.76 0 0 1 5.208 15.5a3.777 3.777 0 0 1-3.776-3.776c0-.64.167-1.235.446-1.755A3.74 3.74 0 0 1 .5 7.069a3.777 3.777 0 0 1 3.776-3.776q.045 0 .088.003A3.76 3.76 0 0 1 8 .5M8 2c-1.217 0-2.206.96-2.263 2.17a.75.75 0 0 1-.927.694 2.2 2.2 0 0 0-.534-.071A2.277 2.277 0 0 0 2 7.069c0 .882.51 1.644 1.26 2.022a.75.75 0 0 1 .231 1.159c-.349.406-.56.916-.56 1.474a2.277 2.277 0 0 0 4.378.874l.05-.1a.75.75 0 0 1 1.334.1 2.276 2.276 0 0 0 4.377-.874c0-.558-.21-1.068-.56-1.474a.75.75 0 0 1 .232-1.16 2.26 2.26 0 0 0 1.259-2L14 7.07a2.277 2.277 0 0 0-2.276-2.277c-.17 0-.344.026-.537.072a.75.75 0 0 1-.924-.694A2.27 2.27 0 0 0 8 2" clip-rule="evenodd" />
    </g>
</svg>
